X: 110105
T: CAMERON'S GOT HIS WIFE AGAIN
Q: "Strathspey."
R:  Strathspey.
%R: strathspey
B: James Kerr "Merry Melodies" v.1 p.10 s.1 #5
Z: 2017 John Chambers <jc:trillian.mit.edu>
M: C
L: 1/16
K: D
|: uB2 |\
vd3uB vA3uF AA3 A3uB | vd3uB vA3uF EE3 E3c |\
d3B A3F Ag3 f3e | d3B A3F DD3 D2 :|\
ug2 |\
fd3 fa3 eg3 f2e2 | fd3 fa3 BB3 B3ug |
fd3 fa3 eg3 f3e | d3B A3F DD3 D3g |\
fd3 fa3 eg3 fe3 | fd3 fa3 BB3 B3c |\
defg a3f eg3 f3e | d3B A3F DD3 D2 |]

%%sep 1 1 500
%%sep 1 1 500

